X:213
T:Tenpenney Bit #1, The
C:Joe Buchanan's Scottish Tome - Page 284.2
I:284 2
Z:Carl Allison
R:Jig
L:1/8
M:6/8
K:C
e | "Am"eAA eAA | "G"BAB "Em"GBd | "Am"eAA eAA | "G"de^f "Em"afg |
"Am"eAA eAA | "G"BAB "Em"GBd | "G"ede "Em"gdB | "Em"BAG "Am"A2 :|
e | "Am"eaa "D7"aga | "G"bge "G"gdB | "Am"eaa "D7"aga | "G"bge g2 "G"d |
"Am"eaa "D7"aga | "G"bge "G"gdB | "Bm"de^f "G"gdB | "Bm"BAG "Em"A2 :|

